X: 42316
T: Wednesday Visit
R: jig
M: 6/8
K: Adorian
c2A AcA|EAB cBA|B2G GFG|Bcd gdB|
c2A AcA|EAB caf|gfe dBe|1 ABA Aed:|2 ABA A2d||
eaa bag|aAB cde|dBG GFG|Bcd ged|
eaa bag|eaf ged|e/f/ge dBe|ABA A2d|
eaa bag|aAB cde|dBG GFG|~B3 GAB|
c2A BAG|EDE GBd|ege dBe|ABA Aed||

